svg/sun_clock.svg

<svg xmlns="http://www.w3.org/2000/svg" viewBox="0 0 24 24"><path d="M18.1 9.3 19.6 6l-4.1-.4c.6.5 1.1 1.1 1.5 1.9.3.6.5 1.1.7 1.7-.5-.1-1.1-.2-1.7-.2h-.4c-.8-1.8-2.5-3-4.6-3-2.8 0-5 2.2-5 5 0 2.1 1.2 3.8 3 4.6v.4c0 3.9 3.1 7 7 7s7-3.1 7-7c0-3.1-2.1-5.8-4.9-6.7M16 21c-2.8 0-5-2.2-5-5s2.2-5 5-5 5 2.2 5 5-2.2 5-5 5m.5-4.8 2.9 1.7-.8 1.2L15 17v-5h1.5zM11 4c-.8 0-1.6.2-2.4.4L11 1l2.4 3.4c-.8-.2-1.6-.4-2.4-.4M4.9 14.5c.4.7 1 1.4 1.6 1.9L2.4 16l1.8-3.8c.1.8.3 1.6.7 2.3m-.8-4.7L2.3 6l4.2-.3c-.6.5-1.1 1.1-1.6 1.8-.4.7-.7 1.5-.8 2.3"/></svg>

<svg xmlns="http://www.w3.org/2000/svg" id="mdi-sun-clock" viewBox="0 0 24 24"><path d="M18.1 9.3L19.6 6L15.5 5.6C16.1 6.1 16.6 6.7 17 7.5C17.3 8.1 17.5 8.6 17.7 9.2C17.2 9.1 16.6 9 16 9H15.6C14.8 7.2 13.1 6 11 6C8.2 6 6 8.2 6 11C6 13.1 7.2 14.8 9 15.6V16C9 19.9 12.1 23 16 23S23 19.9 23 16C23 12.9 20.9 10.2 18.1 9.3M16 21C13.2 21 11 18.8 11 16S13.2 11 16 11 21 13.2 21 16 18.8 21 16 21M16.5 16.2L19.4 17.9L18.6 19.1L15 17V12H16.5V16.2M11 4C10.2 4 9.4 4.2 8.6 4.4L11 1L13.4 4.4C12.6 4.2 11.8 4 11 4M4.9 14.5C5.3 15.2 5.9 15.9 6.5 16.4L2.4 16L4.2 12.2C4.3 13 4.5 13.8 4.9 14.5M4.1 9.8L2.3 6L6.5 5.7C5.9 6.2 5.4 6.8 4.9 7.5C4.5 8.2 4.2 9 4.1 9.8Z" /></svg>
